!! 00000] TT[WS
!!!OTL: Fang shao
!!!ARE: Asia, China, Shanxi Xiyang
!! Ethnic Group: Han
!! WI, 284 (2)
!!!SCT: J0342
!!!YEM: Copyright 1995, estate of Helmut Schaffrath.
**kern
*ICvox
*Ivox
*M2/4
*k[]
*C:
{8g
8g
8cc
16dd
16ee
=1
8cc
16b
16a
4g
=2
8.cc
16f
8g
16a
16g
=3
8f
16e
16d
4c}
=4
{8.g
16d
8e
8a
=5
8g
16d
16e
4c
=6
8f
8e
8g
16d
16e
=7
2c}
==
!!!AGN: Xiaodiao. Xinminge, Xuanchuan
!! Neue Text. Politische Liede
!!!ONB: ESAC (Essen Associative Code) Database: CHINA
!!!AMT: simple duple
!!!AIN: vox
!!!EED: Helmut Schaffrath
!!!EEV: 1.0
*-
